Papirus/32x32/mimetypes/application-vnd.android.package-archive.svg

<svg xmlns="http://www.w3.org/2000/svg" width="32" height="32" version="1">
 <path style="opacity:0.2" d="M 7.25,5 C 6.5575,5 6,5.5575 6,6.25 v 22.5 C 6,29.442 6.5575,30 7.25,30 h 17.5 C 25.442,30 26,29.442 26,28.75 V 13 L 19.125,11.875 18,5 Z"/>
 <path fill="#a3c639" d="m7.25 4c-0.6925 0-1.25 0.5575-1.25 1.25v22.5c0 0.692 0.5575 1.25 1.25 1.25h17.5c0.692 0 1.25-0.558 1.25-1.25v-15.75l-6.875-1.125-1.125-6.875z"/>
 <path style="opacity:0.2" d="m 13.529,14.387 c -0.028,-0.006 -0.059,-0.002 -0.084,0.015 -0.05,0.032 -0.059,0.102 -0.021,0.155 l 0.517,0.72 C 12.794,15.706 12,16.63 12,18 h 7 c 0,-1.411 -0.84,-2.354 -2.043,-2.764 l 0.488,-0.679 c 0.038,-0.053 0.029,-0.122 -0.019,-0.155 -0.05,-0.033 -0.12,-0.017 -0.158,0.036 L 16.744,15.17 C 16.357,15.062 15.939,15 15.5,15 c -0.48,0 -0.939,0.067 -1.355,0.195 l -0.543,-0.757 c -0.02,-0.027 -0.045,-0.044 -0.073,-0.051 z M 14.502,16 C 14.779,16 15,16.223 15,16.498 15,16.773 14.776,17 14.502,17 14.225,17 14,16.776 14,16.498 14,16.223 14.225,16 14.502,16 Z m 2,0 C 16.779,16 17,16.223 17,16.498 17,16.773 16.776,17 16.502,17 16.225,17 16,16.776 16,16.498 16,16.223 16.225,16 16.502,16 Z m -6.457,3 C 9.4699,19 9,19.303 9,19.676 v 2.646 C 9,22.695 9.4699,23 10.045,23 10.62,23 11,22.695 11,22.322 V 19.676 C 11,19.302 10.621,19 10.045,19 Z M 12,19 v 5.5 c 0,0.277 0.223,0.5 0.5,0.5 H 13 v 1.383 c 0,0.409 0.641,0.617 1,0.617 0.359,0 1.054,-0.213 1,-0.617 V 25 h 1 v 1.383 c 0,0.409 0.641,0.617 1,0.617 0.359,0 1.027,-0.21 1,-0.617 V 25 h 0.5 C 18.777,25 19,24.777 19,24.5 V 19 Z m 9.045,0 C 20.47,19 20,19.303 20,19.676 v 2.646 C 20,22.695 20.47,23 21.045,23 21.62,23 22,22.695 22,22.322 V 19.676 C 22,19.302 21.621,19 21.045,19 Z"/>
 <path fill="#fff" stroke-width="3" d="m13.529 13.387c-0.028-0.006-0.059-0.002-0.084 0.015-0.05 0.032-0.059 0.102-0.021 0.155l0.517 0.72c-1.147 0.429-1.941 1.353-1.941 2.723h7c0-1.411-0.84-2.354-2.043-2.764l0.488-0.679c0.038-0.053 0.029-0.122-0.019-0.155-0.05-0.033-0.12-0.017-0.158 0.036l-0.524 0.732c-0.387-0.108-0.805-0.17-1.244-0.17-0.48 0-0.939 0.067-1.355 0.195l-0.543-0.757c-0.02-0.027-0.045-0.044-0.073-0.051zm0.973 1.613c0.277 0 0.498 0.223 0.498 0.498s-0.224 0.502-0.498 0.502c-0.277 0-0.502-0.224-0.502-0.502 0-0.275 0.225-0.498 0.502-0.498zm2 0c0.277 0 0.498 0.223 0.498 0.498s-0.224 0.502-0.498 0.502c-0.277 0-0.502-0.224-0.502-0.502 0-0.275 0.225-0.498 0.502-0.498zm-6.457 3c-0.5751 0-1.045 0.303-1.045 0.676v2.646c0 0.373 0.4699 0.678 1.045 0.678 0.575 0 0.955-0.305 0.955-0.678v-2.646c0-0.374-0.379-0.676-0.955-0.676zm1.955 0v5.5c0 0.277 0.223 0.5 0.5 0.5h0.5v1.383c0 0.409 0.641 0.617 1 0.617s1.054-0.213 1-0.617v-1.383h1v1.383c0 0.409 0.641 0.617 1 0.617s1.027-0.21 1-0.617v-1.383h0.5c0.277 0 0.5-0.223 0.5-0.5v-5.5h-7zm9.045 0c-0.575 0-1.045 0.303-1.045 0.676v2.646c0 0.373 0.47 0.678 1.045 0.678s0.955-0.305 0.955-0.678v-2.646c0-0.374-0.379-0.676-0.955-0.676z"/>
 <path style="opacity:0.2" d="m 18,5 v 6.6667 c 0,0.736 0.597,1.333 1.333,1.333 H 26 l -8,-8 z"/>
 <path fill="#d7f57c" d="m18 4v6.6667c0 0.736 0.597 1.333 1.333 1.333h6.667l-8-8z"/>
 <path fill="#fff" d="m11.131 15.972"/>
 <path fill="#fff" d="m15.689 18.27"/>
 <path fill="#fff" d="m17.185 14.337"/>
 <path fill="#fff" style="opacity:0.2" d="m7.25 4c-0.6925 0-1.25 0.5575-1.25 1.25v1c0-0.6925 0.5575-1.25 1.25-1.25h10.75v-1z"/>
 <path style="opacity:0.2" d="M 11.131,16.972"/>
 <path style="opacity:0.2" d="M 15.689,19.27"/>
 <path style="opacity:0.2" d="M 17.185,15.337"/>
</svg>

<svg xmlns="http://www.w3.org/2000/svg" width="32" height="32" version="1.1">
 <path style="opacity:0.2" d="M 7.25,5 C 6.5575,5 6,5.5575 6,6.25 V 28.75 C 6,29.442 6.5575,30 7.25,30 H 24.75 C 25.442,30 26,29.442 26,28.75 V 13 L 18,5 Z"/>
 <path style="fill:#a3c639" d="M 7.25,4 C 6.5575,4 6,4.5575 6,5.25 V 27.75 C 6,28.442 6.5575,29 7.25,29 H 24.75 C 25.442,29 26,28.442 26,27.75 V 12 L 20,10 18,4 Z"/>
 <path style="opacity:0.2" d="M 26,13 18,5 V 11.75 C 18,12.443 18.558,13 19.25,13 Z"/>
 <path style="fill:#d7f57c" d="M 26,12 18,4 V 10.75 C 18,11.443 18.558,12 19.25,12 Z"/>
 <path style="opacity:0.2;fill:#ffffff" d="M 7.25 4 C 6.5575 4 6 4.5575 6 5.25 L 6 6.25 C 6 5.5575 6.5575 5 7.25 5 L 18 5 L 18 4 L 7.25 4 z"/>
 <path style="opacity:0.2" d="M 13.529,14.387 C 13.501,14.381 13.47,14.385 13.445,14.402 13.395,14.434 13.386,14.504 13.424,14.557 L 13.941,15.277 C 12.794,15.706 12,16.63 12,18 H 19 C 19,16.589 18.16,15.646 16.957,15.236 L 17.445,14.557 C 17.483,14.504 17.474,14.435 17.426,14.402 17.376,14.369 17.306,14.385 17.268,14.438 L 16.744,15.17 C 16.357,15.062 15.939,15 15.5,15 15.02,15 14.561,15.067 14.145,15.195 L 13.602,14.438 C 13.582,14.411 13.557,14.394 13.529,14.387 Z M 14.502,16 C 14.779,16 15,16.223 15,16.498 15,16.773 14.776,17 14.502,17 14.225,17 14,16.776 14,16.498 14,16.223 14.225,16 14.502,16 Z M 16.502,16 C 16.779,16 17,16.223 17,16.498 17,16.773 16.776,17 16.502,17 16.225,17 16,16.776 16,16.498 16,16.223 16.225,16 16.502,16 Z M 10.045,19 C 9.4699,19 9,19.303 9,19.676 V 22.322 C 9,22.695 9.4699,23 10.045,23 10.62,23 11,22.695 11,22.322 V 19.676 C 11,19.302 10.621,19 10.045,19 Z M 12,19 V 24.5 C 12,24.777 12.223,25 12.5,25 H 13 V 26.383 C 13,26.792 13.641,27 14,27 14.359,27 15.054,26.787 15,26.383 V 25 H 16 V 26.383 C 16,26.792 16.641,27 17,27 17.359,27 18.027,26.79 18,26.383 V 25 H 18.5 C 18.777,25 19,24.777 19,24.5 V 19 Z M 21.045,19 C 20.47,19 20,19.303 20,19.676 V 22.322 C 20,22.695 20.47,23 21.045,23 21.62,23 22,22.695 22,22.322 V 19.676 C 22,19.302 21.621,19 21.045,19 Z"/>
 <path style="fill:#ffffff" d="M 13.529,13.387 C 13.501,13.381 13.47,13.385 13.445,13.402 13.395,13.434 13.386,13.504 13.424,13.557 L 13.941,14.277 C 12.794,14.706 12,15.63 12,17 H 19 C 19,15.589 18.16,14.646 16.957,14.236 L 17.445,13.557 C 17.483,13.504 17.474,13.435 17.426,13.402 17.376,13.369 17.306,13.385 17.268,13.438 L 16.744,14.17 C 16.357,14.062 15.939,14 15.5,14 15.02,14 14.561,14.067 14.145,14.195 L 13.602,13.438 C 13.582,13.411 13.557,13.394 13.529,13.387 Z M 14.502,15 C 14.779,15 15,15.223 15,15.498 15,15.773 14.776,16 14.502,16 14.225,16 14,15.776 14,15.498 14,15.223 14.225,15 14.502,15 Z M 16.502,15 C 16.779,15 17,15.223 17,15.498 17,15.773 16.776,16 16.502,16 16.225,16 16,15.776 16,15.498 16,15.223 16.225,15 16.502,15 Z M 10.045,18 C 9.4699,18 9,18.303 9,18.676 V 21.322 C 9,21.695 9.4699,22 10.045,22 10.62,22 11,21.695 11,21.322 V 18.676 C 11,18.302 10.621,18 10.045,18 Z M 12,18 V 23.5 C 12,23.777 12.223,24 12.5,24 H 13 V 25.383 C 13,25.792 13.641,26 14,26 14.359,26 15.054,25.787 15,25.383 V 24 H 16 V 25.383 C 16,25.792 16.641,26 17,26 17.359,26 18.027,25.79 18,25.383 V 24 H 18.5 C 18.777,24 19,23.777 19,23.5 V 18 Z M 21.045,18 C 20.47,18 20,18.303 20,18.676 V 21.322 C 20,21.695 20.47,22 21.045,22 21.62,22 22,21.695 22,21.322 V 18.676 C 22,18.302 21.621,18 21.045,18 Z"/>
</svg>
